svgs/mpatcher.svg

<svg xmlns="http://www.w3.org/2000/svg" viewBox="0 0 192 192"><path d="M24.857 16.5a8.575 8.575 0 0 0-8.357 8.571v141.858a8.573 8.573 0 0 0 8.571 8.571h141.858a8.573 8.573 0 0 0 8.571-8.571V24.857a8.575 8.575 0 0 0-8.571-8.357Zm6.643 15 35.229 20.314L31.5 72.129m75.214 0H66.686M41.871 87.214a11.02 11.02 0 0 1 7.543 3.172l8.957 8.914a63.87 63.87 0 0 1 37.415-12.109A63.87 63.87 0 0 1 133.2 99.3l9-8.957a10.493 10.493 0 0 1 10.158-2.727 10.502 10.502 0 0 1 4.713 17.555l-9.128 8.615a64.286 64.286 0 0 1 12.128 37.714v8.571H31.5V151.5a64.296 64.296 0 0 1 12.171-37.586l-9-8.871a10.505 10.505 0 0 1-3.065-7.414c0-2.779 1.103-5.447 3.065-7.415a10.21 10.21 0 0 1 7.2-3Z" fill="none" stroke="#000" stroke-width="8" stroke-linecap="round" stroke-linejoin="round"/><path d="M68.7 126.514a11.792 11.792 0 0 0-10.293 5.893 11.789 11.789 0 0 0-1.578 5.936A11.872 11.872 0 0 0 68.7 150.214a11.874 11.874 0 0 0 7.93-3.711 11.877 11.877 0 0 0 0-16.277 11.875 11.875 0 0 0-7.93-3.712Zm54.171 0a11.874 11.874 0 0 0-10.687 17.039 11.867 11.867 0 0 0 13.359 6.4 11.876 11.876 0 0 0 9.2-11.61 11.79 11.79 0 0 0-11.872-11.829Z" fill="none" stroke="#000" stroke-width="8" stroke-linecap="round" stroke-linejoin="round"/></svg>

<svg
    xmlns="http://www.w3.org/2000/svg"
    viewBox="0 0 192 192"
    id="vector">
    <path
        id="path"
        d="M 24.857 16.5 C 22.622 16.556 20.495 17.484 18.934 19.085 C 17.373 20.686 16.499 22.836 16.5 25.071 L 16.5 166.929 C 16.5 168.433 16.896 169.911 17.648 171.214 C 18.401 172.517 19.483 173.599 20.786 174.352 C 22.089 175.104 23.567 175.5 25.071 175.5 L 166.929 175.5 C 168.433 175.5 169.911 175.104 171.214 174.352 C 172.517 173.599 173.599 172.517 174.352 171.214 C 175.104 169.911 175.5 168.433 175.5 166.929 L 175.5 24.857 C 175.444 22.622 174.516 20.495 172.915 18.934 C 171.314 17.373 169.164 16.499 166.929 16.5 Z M 31.5 31.5 L 66.729 51.814 L 31.5 72.129 M 106.714 72.129 L 66.686 72.129 M 41.871 87.214 C 44.699 87.264 47.401 88.4 49.414 90.386 L 58.371 99.3 C 69.257 91.43 82.353 87.191 95.786 87.191 C 109.218 87.191 122.314 91.43 133.2 99.3 L 142.2 90.343 C 143.504 89.035 145.13 88.094 146.913 87.616 C 148.696 87.137 150.575 87.137 152.358 87.616 C 154.142 88.094 155.768 89.035 157.071 90.343 C 159.033 92.31 160.136 94.978 160.136 97.757 C 160.136 100.536 159.033 103.204 157.071 105.171 L 147.943 113.786 C 155.854 124.765 160.1 137.967 160.071 151.5 L 160.071 160.071 L 31.5 160.071 L 31.5 151.5 C 31.511 138.006 35.771 124.853 43.671 113.914 L 34.671 105.043 C 32.709 103.075 31.606 100.407 31.606 97.629 C 31.606 94.85 32.709 92.182 34.671 90.214 C 36.578 88.301 39.17 87.221 41.871 87.214 Z"
        fill="none"
        stroke="#000000"
        stroke-width="8"
        stroke-linecap="round"
        stroke-linejoin="round"/>
    <path
        id="path_1"
        d="M 68.7 126.514 C 66.617 126.499 64.566 127.037 62.758 128.072 C 60.951 129.107 59.449 130.603 58.407 132.407 C 57.366 134.211 56.821 136.26 56.829 138.343 C 56.829 140.427 57.377 142.474 58.419 144.279 C 59.461 146.083 60.96 147.582 62.764 148.624 C 64.569 149.666 66.616 150.214 68.7 150.214 C 71.719 150.033 74.557 148.704 76.63 146.503 C 78.703 144.301 79.858 141.388 79.858 138.364 C 79.858 135.34 78.703 132.428 76.63 130.226 C 74.557 128.024 71.719 126.696 68.7 126.514 Z M 122.871 126.514 C 120.181 126.514 117.568 127.429 115.465 129.108 C 113.362 130.787 111.891 133.132 111.295 135.756 C 110.699 138.38 111.012 141.13 112.184 143.553 C 113.355 145.976 115.316 147.93 117.743 149.092 C 120.17 150.255 122.921 150.558 125.543 149.953 C 128.165 149.347 130.505 147.868 132.176 145.759 C 133.847 143.65 134.753 141.034 134.743 138.343 C 134.75 136.26 134.206 134.211 133.164 132.407 C 132.122 130.603 130.621 129.107 128.813 128.072 C 127.005 127.037 124.955 126.499 122.871 126.514 Z"
        fill="none"
        stroke="#000000"
        stroke-width="8"
        stroke-linecap="round"
        stroke-linejoin="round"/>
</svg>
